svgs/solid/stopwatch.svg

<svg xmlns="http://www.w3.org/2000/svg" viewBox="0 0 448 512"><!-- Font Awesome Pro 6.0.0-alpha2 by @fontawesome - https://fontawesome.com License - https://fontawesome.com/license (Commercial License) --><path d="M398.501 190.906L399.094 190.297L425.682 163.725C431.933 157.477 431.935 147.344 425.686 141.094L403.003 118.407C396.754 112.157 386.622 112.157 380.374 118.406L355.688 143.094C327.688 120.094 293.499 104.297 255.999 98.5V64H272.017C289.617 64 304.016 49.6 304.016 32.001V31.999C304.016 14.4 289.617 0 272.017 0H176.015C158.415 0 144.014 14.4 144.014 32.001V32.001C144.014 49.6 158.414 64 176.013 64H191.999V98.5C94.365 113.477 19.154 196.476 16.092 297.588C12.642 411.508 106.768 510.222 220.727 511.972C337.135 513.76 432.001 419.997 432.001 304C432.001 262.203 419.688 223.297 398.501 190.906ZM248.001 328C248.001 341.25 237.251 352 224.001 352S200.001 341.25 200.001 328V216C200.001 202.75 210.751 192 224.001 192S248.001 202.75 248.001 216V328Z"/></svg>

<svg xmlns="http://www.w3.org/2000/svg" viewBox="0 0 448 512"><!--! Font Awesome Pro 6.0.0-alpha3 by @fontawesome - https://fontawesome.com License - https://fontawesome.com/license (Commercial License) --><path d="M398.5 190.9l27.18-27.18c6.252-6.248 6.252-16.38 .0031-22.63l-22.68-22.69c-6.249-6.25-16.38-6.25-22.63-.0003l-24.67 24.67c-28-23-62.21-38.68-99.71-44.47V64h16.02c17.6 0 31.1-14.4 31.1-31.1S289.6 0 272 0H176C158.4 0 144 14.4 144 32C144 49.6 158.4 64 176 64h15.99v34.61c-97.63 14.98-172.8 97.87-175.9 198.1c-3.45 113.9 90.68 212.6 204.6 214.4C337.1 513.8 432 419.1 432 304C432 262.2 419.7 223.3 398.5 190.9zM248 328c0 13.25-10.75 24-24 24s-24-10.75-24-24v-112C200 202.8 210.8 192 224 192s24 10.75 24 24V328z"/></svg>
